X:125
M:6/8
L:1/8
K:G
|:(e/f/)|gdB gdB|gdB AFD|g(e/f/g) def|gbg afd|gdB gdB|gdB AFD|EFG DcB|AGF G2:|

